X:1
T:Father Kelly's
R:reel
M:4/4
L:1/8
K:G
B2GB AGEG|DGGF G2AB|c2AB cBAG|EAAG FDGA|
B2GB AGEG|DGGF GABc|d2Bd gdBd|1 cAFA ~G3A:|2 cAFA GABc|]
d2Bd gdBd|d2Bd gdBd|e2ce agfe|defg agfe|
d2Bd gdBd|d2Bd gdBd|c2Ac BAGB|1 AGFA GABc:|2 AGFA ~G3A|]
</abc>
<abc>
